; adapted from a Python implementation explained at:
; https://www.youtube.com/watch?v=pxKu2pQ7ILo&t=1913s

to star :size
	if :size > 10 [
		repeat 5 [
			forward :size
			star :size / 3
			right 216
		]
	]
end


star 200