to regularPolygon :size :numSides
	repeat :numSides [
		forward :size / :numSides
		right 360 / :numSides
	]
	closePath
end

right 90
for ["numSides 3 8] [
	regularPolygon 100 :numSides
	
	jumpForward 50
	
]