to snowflake4 :size
	localmake "size1 :size * 1.5
	localmake "size2 :size1 * 0.093691
	localmake "size3 :size1 * 0.53334
	localmake "size4 :size * 0.1

	repeat 6 [
		pendown
		setpensize :size * 0.018
		arcRight 25 :size1
		arcRight 180 :size2
		arcRight 25 :size1
		left 175
		setpensize :size * 0.011
		forward :size3
		setpensize :size * 0.01
		repeat 4 [
			arcleft 90 :size4
			right 180
		]
		penup
		back :size3
		right 5
	]
end

right 5
setpencolor "midnightblue
snowflake4 100