; The following should not get to the compile step.
; The unmatched - in drawRocks should error and stop before trying to compile.
; I'm seeing the following:
; Error: Unable to get instructions for token type: NEW_LINE and children length 0
    at getInstructionsFromToken (compileParameters.js:79:9)
    at pushParameters (compileParameters.js:92:3)
    at getInstructionsFromToken (compileParameters.js:49:3)
    at compileDataListLiteral.js:16:3
    at Array.forEach (<anonymous>)
    at compileDataListLiteral (compileDataListLiteral.js:15:17)
    at getInstructionsFromToken (compileParameters.js:74:3)
    at compileDataListLiteral.js:16:3
    at Array.forEach (<anonymous>)
    at compileDataListLiteral (compileDataListLiteral.js:15:17)
compile @ compile.js:36
refreshProgram @ Code.js:75
run @ Code.js:100
runTestClicked @ runTest.js:14
resetAndTest @ resetAndTest.js:9
LogoProgram.js:48  Uncaught TypeError: Cannot read properties of undefined (reading 'some')
    at LogoProgram.usesAsyncInstructions (LogoProgram.js:48:27)
    at LogoProgramExecuter.startContinuousExecution (LogoProgramExecuter.js:282:41)
    at PrivateCode.run (Code.js:105:19)
    at runTestClicked (runTest.js:14:7)
    at HTMLLIElement.resetAndTest (resetAndTest.js:9:2)
;

to drawRocks :height
	localmake "oldPos pos
	localmake "oldHeading heading
	localmake "rocksInfo [
		; lowest rock
		[0 0.005 [
			[-90 0] [2 5]
			[93 0.055]
			[5 1.4] [80 0.04] [14 1]
			[30 0.06] [50 0.13] [30 0.02]
			[24 0.2]
		]
		]
		; second from bottom rock
		[-0.076 0.219 [
			[-170 0] [80 0.03] [11 0.8] [-20 0.1]
			[20 0.17] [72 0.02] [12 0.4] [90 0.03]
			[-20 0.23] [18 0.5] [86 0.04]
			[10 0.5]
			]
		]
		; third rock from the bottom
		[-

		]
	]
	setPenSize :height * 0.013
	setPenColor "black
	setFillColor "#d51516
	repeat count :rocksInfo [
		localmake "rockInfo item repcount :rocksInfo
		jumpLeft :height * first :rockInfo
		jumpForward :height * item 2 :rockInfo
		localmake "arcsInfo item 3 :rockInfo
		polyStart
		arcsRight :arcsInfo :height
		polyEnd
		jumpTo :oldPos
		setHeading :oldHeading
	]
end

to nunavutFlag :height
	localmake "oldState turtleState
	localmake "width :height * 96 / 54
	localmake "starSize :height * 0.086

	; Draw the yellow and white background.
	jumpForward :height / 2
	right 90
	jumpBackward :width / 2
	stripes :height :width ["#fdd500 "white]

	; Draw the star.
	jumpLeft :height * 0.3
	jumpForward :width * 0.8875
	setPenSize 0
	setFillColor "#0164bb
	right 27
	regularStar :starSize 5

	; Draw the rocks.
	setTurtleState :oldState
	drawRocks :height

	setTurtleState :oldState
end

setScreenColor "black
nunavutFlag 100