make "faurlandRealtyRed "#fe0000

; Inspired by logo at
; http://www.fuerlandrealty.com
to faurlandRealtyLogo :height
	localmake "oldState turtleState
	localmake "oldPos pos
	localmake "oldHeading heading
	localmake "roofAngle 45
	localmake "roofSize1 :height * 0.26
	localmake "roofSize2 :roofSize1 / sin :roofAngle
	jumpForward :height / 2

	; Draw outer circle.
	setPenSize :height * 0.125
	setPenColor "#fbfa07
	setFillColor :faurlandRealtyRed
	circle (:height - penSize) / 2

	; Draw roof
	jumpBackward :height * 0.07
	setLineCap "butt
	jumpLeft :roofSize1
	right :roofAngle
	forward :roofSize2
	setHeading :oldHeading + 180 - :roofAngle
	forward :roofSize2

	jumpTo :oldPos
	setHeading :oldHeading
	jumpForward :height * 0.382
	setPenSize 0
	setFillColor "black
	circle :height * 0.093
	setTurtleState :oldState
end

setScreenColor :faurlandRealtyRed
faurlandRealtyLogo 100