; Inspired by logo at:
; https://www.sokolovelaw.com
to sokoloveLawLogo :height
	localmake "oldState turtleState
	localmake "radius :height / 4
	localmake "offset :radius / cos 45
	jumpForward :height / 2
	localmake "center pos
	setPenSize 0
	setFillColor "#7A2426
	right 45
	repeat 4 [
		right 90
		jumpTo :center
		jumpForward :offset
		circle :radius
		setFillColor "#606A73
	]	

	setTurtleState :oldState
end

sokoloveLawLogo 100