; copied from
; https://fmslogo.blogspot.com/2014/07/fms-logo.html
;
; Optimized by replacing an 18-sided regular polygonal 
; arc with a call to arc2.

repeat 18 [
	repeat 18 [
		repeat 4 [
			arcRight 90 360 / pi
			right 160
		]
		right 20
	]
	right 20
]