; A circular design brainstormed on paper and transferred to WebLogo program

make "smallLen sqrt 2*15*15
make "angle1 arcSin 15 / 100
make "angle2 45 + :angle1

repeat 18 [
	forward 100
	right :angle2
	forward :smallLen
	right 90
	forward :smallLen
	right :angle2
	forward 100
	right 200 - 2*:angle1
]