to gears10 :radius
	localmake "gearDepth :radius * 0.1
	localmake "smallRadius :radius - :gearDepth
	repeat 10 [
		arcRight 16 :radius
		right 93
		forward :gearDepth
		left 90
		arcRight 17 :smallRadius
		left 90
		forward :gearDepth
		right 90
	]
end

setScreenColor "black
setPenSize 0
setFillColor "white
polyStart
gears10 150
polyEnd