; Draws a simple image of the Sun

; Set color of the sky.
setScreenColor "navy
; color of the sun
setFillColor "lightyellow

; color of the glare
setPenColor "yellow
setPenSize 10


; Draw the glare.
repeat 10 [
	forward 150
	backward 150
	right 36
]

; draw the main disk.
circle 100