; The following is adapted slightly from:
; https://en.wikipedia.org/wiki/Logo_(programming_language)#/media/File:IBM_LCSI_Logo_Circles.png
; Circles are used instead of repeated forwards to create exact curves.

to circles :size
	setfillcolor transparent
	repeat 20 [
		circle2 :size
		right 18
	]
end

setpensize 5
pendown
circles 100