; Inspired by
; https://www.youtube.com/watch?v=JDSSLxB6phI
; That video uses MSWLogo instead of WebLogo but
; there is a lot of similarity.
setScreenColor "black
setPenColor "yellow
setPenSize 2
repeat 6 [
	repeat 10 [
		make "radius1 repcount * 20
		ellipse 400 :radius1
	]
	ellipse 400 1
	right 30
]