; This example prints Hello, world in a variety of ways

print ["Hello "world]
; Prints [Hello world] to Commander

print 'Hello, world'
; Prints Hello, world to Commander

label 'Hello, world'
; Draws Hello, world vertically

right 90 
; turn right 90 degrees.

setFillColor "red
; Fill the font shapes with red.

setFontSize 150
; Make text that will be drawn much bigger.

label 'Hello, world'
; Draws Hello, world horizontally